packages/icons/src/svg/20/ticket_outline_20.svg

<svg width="20" height="20" viewBox="0 0 20 20" fill="none" xmlns="http://www.w3.org/2000/svg">
<g clip-path="url(#clip0)">
<path fill-rule="evenodd" clip-rule="evenodd" d="M17.4011 5.38166C17.1472 5.12509 16.7466 5.08574 16.4476 5.28802C15.9617 5.61682 15.2948 5.56509 14.8648 5.1351C14.4349 4.70511 14.3831 4.03822 14.7119 3.55231C14.9142 3.25337 14.8749 2.85275 14.6183 2.59887C13.924 1.91186 13.3703 1.38931 12.6872 1.16736C12.0345 0.95527 11.3313 0.95527 10.6786 1.16736C10.2615 1.30287 9.90858 1.54164 9.55424 1.84245C9.21191 2.13306 8.82252 2.52247 8.34638 2.99861L8.34636 2.99864L8.32414 3.02085L3.02084 8.32416L2.99862 8.34637L2.9986 8.3464C2.52246 8.82253 2.13305 9.21193 1.84244 9.55425C1.54163 9.90859 1.30286 10.2615 1.16735 10.6786C0.955258 11.3313 0.955257 12.0345 1.16735 12.6872C1.3893 13.3703 1.91185 13.924 2.59886 14.6183C2.85274 14.8749 3.25335 14.9142 3.55229 14.712C4.0382 14.3832 4.70507 14.4349 5.13506 14.8649C5.56505 15.2949 5.61678 15.9617 5.28799 16.4477C5.08572 16.7466 5.12507 17.1472 5.38164 17.4011C6.07597 18.0881 6.62966 18.6107 7.31277 18.8326C7.96551 19.0447 8.66864 19.0447 9.32138 18.8326C9.73845 18.6971 10.0914 18.4584 10.4457 18.1575C10.7881 17.8669 11.1774 17.4775 11.6536 17.0014L11.6536 17.0014L11.6758 16.9791L16.9791 11.6758L17.0014 11.6536L17.0014 11.6536C17.4775 11.1775 17.8669 10.7881 18.1575 10.4457C18.4583 10.0914 18.6971 9.73846 18.8326 9.32139C19.0447 8.66865 19.0447 7.96552 18.8326 7.31278C18.6107 6.62968 18.0881 6.07599 17.4011 5.38166ZM13.8042 6.19576C14.5911 6.98264 15.7351 7.19263 16.7132 6.82703C17.1637 7.3048 17.3316 7.54721 17.406 7.7763C17.5202 8.12778 17.5202 8.50639 17.406 8.85786C17.3561 9.01161 17.2546 9.19159 17.014 9.47498C16.7678 9.76506 16.4222 10.1114 15.9185 10.6152L15.07 11.4637L14.278 10.6717C13.9851 10.3788 13.5102 10.3788 13.2173 10.6717C12.9244 10.9646 12.9244 11.4395 13.2173 11.7324L14.0093 12.5244L10.6152 15.9185C10.1114 16.4223 9.76505 16.7678 9.47497 17.014C9.19158 17.2546 9.0116 17.3561 8.85785 17.4061C8.50638 17.5203 8.12777 17.5203 7.77629 17.4061C7.5472 17.3316 7.30478 17.1637 6.827 16.7132C7.19259 15.7351 6.98259 14.5911 6.19572 13.8042C5.40885 13.0174 4.26484 12.8074 3.28674 13.173C2.83625 12.6952 2.66836 12.4528 2.59393 12.2237C2.47973 11.8722 2.47973 11.4936 2.59393 11.1421C2.64389 10.9884 2.74537 10.8084 2.98595 10.525C3.23221 10.2349 3.57773 9.88859 4.0815 9.38482L7.47563 5.99069L8.26755 6.78261C8.56044 7.07551 9.03531 7.07551 9.32821 6.78261C9.6211 6.48972 9.6211 6.01485 9.32821 5.72195L8.53629 4.93003L9.3848 4.08152C9.88858 3.57774 10.2349 3.23222 10.525 2.98596C10.8084 2.74538 10.9884 2.6439 11.1421 2.59394C11.4936 2.47974 11.8722 2.47974 12.2237 2.59394C12.4528 2.66838 12.6952 2.83626 13.1729 3.28674C12.8073 4.26485 13.0173 5.40888 13.8042 6.19576ZM11.4496 7.84331C11.1567 7.55041 10.6818 7.55041 10.3889 7.84331C10.096 8.1362 10.096 8.61107 10.3889 8.90397L11.096 9.61107C11.3889 9.90397 11.8638 9.90397 12.1567 9.61107C12.4496 9.31818 12.4496 8.84331 12.1567 8.55041L11.4496 7.84331Z" fill="currentColor"/>
</g>
<defs>
<clipPath id="clip0">
<rect width="20" height="20" fill="white"/>
</clipPath>
</defs>
</svg>

<svg xmlns="http://www.w3.org/2000/svg" width="20" height="20" viewBox="0 0 20 20" fill="currentColor"><path fill-rule="evenodd" d="M17.408 5.377a.75.75 0 0 0-.954-.093 1.252 1.252 0 0 1-1.738-1.738.75.75 0 0 0-.093-.954c-.695-.688-1.25-1.21-1.933-1.433a3.25 3.25 0 0 0-2.01 0c-.418.136-.771.375-1.126.676-.343.29-.733.68-1.21 1.157L2.993 8.345c-.476.476-.866.866-1.157 1.209-.301.355-.54.708-.676 1.125a3.25 3.25 0 0 0 0 2.01c.222.684.745 1.239 1.433 1.934a.75.75 0 0 0 .954.093 1.252 1.252 0 0 1 1.738 1.738.75.75 0 0 0 .093.954c.695.688 1.25 1.21 1.933 1.433a3.25 3.25 0 0 0 2.01 0c.418-.136.771-.375 1.126-.676.343-.29.732-.68 1.21-1.157l5.352-5.353c.476-.476.866-.866 1.157-1.209.301-.354.54-.708.676-1.125a3.25 3.25 0 0 0 0-2.01c-.222-.684-.745-1.239-1.433-1.934m-3.6.815a2.75 2.75 0 0 0 2.911.632c.451.478.62.721.694.95.114.352.114.731 0 1.083-.05.154-.152.334-.393.617-.246.29-.592.637-1.096 1.142l-.85.849-.792-.793a.75.75 0 1 0-1.062 1.062l.793.793-3.397 3.397c-.505.504-.851.85-1.142 1.096-.283.241-.463.343-.617.393a1.76 1.76 0 0 1-1.083 0c-.229-.075-.472-.243-.95-.694a2.752 2.752 0 0 0-3.543-3.543c-.451-.478-.62-.721-.694-.95a1.75 1.75 0 0 1 0-1.083c.05-.154.152-.334.392-.618.247-.29.593-.637 1.097-1.14l3.397-3.398.793.793a.75.75 0 0 0 1.062-1.062l-.793-.793.85-.849c.503-.504.85-.85 1.14-1.097.284-.24.464-.342.618-.392.352-.114.73-.114 1.083 0 .229.075.472.243.95.694a2.75 2.75 0 0 0 .632 2.911m-2.357 1.65a.75.75 0 1 0-1.062 1.061l.708.708a.75.75 0 0 0 1.062-1.062z" clip-rule="evenodd"/></svg>
